X:1
T:Vismelodi efter Johan Albert Ekvall
S:efter Johan Albert Ekvall
R:Visa
O:Södermanland, Björkvik
B:http://www.smus.se/earkiv/fmk/browselarge.php?lang=sw&katalogid=S%F6+1&bildnr=00120
M:C
L:1/8
Z:Nils L
K:C
AB | c2 (PcB) (AG)(AB) | c2 (ec) d2 (e^f) | g2 (ba) (^fd)(fg) | [ee]4 z2 [| (e=f) | g2 (ba) (^fd)(fg) | 
(e>=f) (ec) A2 (AB) | {cd}c2 A2 {Bc}B2 G2 | [AA]6 |]

